!!!COM: Bach, Johann Sebastian
!!!CDT: 1685/3//-1750/7/28/
!!!OTL@@DE: Jesu, meiner Seelen Wonne
!!!AGN: 4-Part Chorale
!!!SCT: BH 350
!!!SCT: BWV 360
**harm	**root	**kern	**kern	**kern	**kern
!	!	!bass	!tenor	!alto	!soprno
*	*Iorgan	*Iorgan	*Iorgan	*Iorgan	*Iorgan
*M4/4	*M4/4	*M4/4	*M4/4	*M4/4	*M4/4
*met(c)	*met(c)	*met(c)	*met(c)	*met(c)	*met(c)
*MM60	*MM60	*MM60	*MM60	*MM60	*MM60
*k[b-e-a-d-g-c-f-]	*k[b-e-a-d-g-c-f-]	*k[b-e-a-d-g-c-f-]	*k[b-e-a-d-g-c-f-]	*k[b-e-a-d-g-c-f-]	*k[b-e-a-d-g-c-f-]
*C-:	*C-:	*C-:	*C-:	*C-:	*C-:
*>[A,A,B]	*>[A,A,B]	*>[A,A,B]	*>[A,A,B]	*>[A,A,B]	*>[A,A,B]
*>A	*>A	*>A	*>A	*>A	*>A
=1-	=1-	=1-	=1-	=1-	=1-
I	4BB-	4c-	4g-	4cc-	4ee-
IVb	4EE-	4A-	8c-	4cc-	4ff-
.	.	.	8d-	.	.
iii	4DD	4E-	4e-	4b-	4gg-
vi7	4GG	4A-	4e-	8cc-	4gg-
.	.	.	.	8b-	.
=2	=2	=2	=2	=2	=2
ii	4CC	4D-	4f-	8a-	4ff-
.	.	.	.	8b-	.
I	4BB-	4C-	4g-	4cc-	4ee-
V	4FF	4G-	4g-	4b-	4dd-
V;	4FF;	4G-;	4g-;	4b-;	4dd-;
=3	=3	=3	=3	=3	=3
I	4BB-	4C-	4g-	4cc-	4ee-
ii	4CC	4D-	4f-	8b-	4ff-
.	.	.	.	8a-	.
iii	4DD	4E-	8e-	4g-	4gg-
.	.	.	8d-	.	.
vi	4GG	8A-	4c-	4a-	4ee-
.	.	8G-	.	.	.
=4	=4	=4	=4	=4	=4
ii7b	4CC	4F-	4c-	4a-	4.dd-
V	4FF	4G-	4B-	4g-	.
.	.	.	.	.	8dd-
I;	2BB-;	2C-;	2e-;	2g-;	2cc-;
=:|!	=:|!	=:|!	=:|!	=:|!	=:|!
*>B	*>B	*>B	*>B	*>B	*>B
=5	=5	=5	=5	=5	=5
V	4FF	4G-	4g-	4b-	4dd-
viiob/ii	4BB	4E-	4G-	4cc	4ee-
ii	4CC	8D-	4A-	4dd-	4ff-
.	.	8E-	.	.	.
iib	4CC	8F-	4d-	4a-	4ff-
.	.	8G-	.	.	.
=6	=6	=6	=6	=6	=6
V/ii	4GG	4A-	8d-	4a-	4.ee-
.	.	.	8B-	.	.
V7/ii	4GG	4AA-	4c	8g-	.
.	.	.	.	8f-	8dd-
ii;	2CC;	2D-;	2A-;	2f-;	2dd-;
!!linebreak: 2
=7	=7	=7	=7	=7	=7
ii	4CC	4d-	4d-	4a-	4ff-
V7/IV	4BB-	8c-	4e-	4cc-	4gg-
.	.	8B--	.	.	.
IVb	4EE-	8A-	4f-	4cc-	4aa-
.	.	8G-	.	.	.
IV	4EE-	4F-	4f-	4cc-	4aa-
=8	=8	=8	=8	=8	=8
V/IV	4BB-	4c-	8f-	4cc-	4gg-
.	.	.	8d-	.	.
V7/IV	4BB-	4C-	4e-	8cc-	8.gg-
.	.	.	.	8b--	.
.	.	.	.	.	16ff-
IV;	2EE-;	2F-;	2c-;	2a-;	2ff-;
=9	=9	=9	=9	=9	=9
vi	4GG	4A-	4c-	4a-	4ee-
IV	4EE-	8G-	4c-	4a-	4ff-
.	.	8F-	.	.	.
Vb/IV	4BB-	4E-	8c-	4g-	4gg-
.	.	.	8B--	.	.
IV	4EE-	4F-	4A-	4f-	4cc-
=10	=10	=10	=10	=10	=10
V7b	4FF	4BB-	4d-	4g-	4ff-
I	4BB-	4C-	4c-	4g-	4ee-
V	4FF	4G-	4B-	4g-	4dd-
V;	4FF;	4G-;	4B-;	4g-;	4dd-;
=11	=11	=11	=11	=11	=11
I	4BB-	4c-	4c-	4g-	4ee-
IVb	4EE-	8B-	4c-	4a-	4ff-
.	.	8A-	.	.	.
V	4FF	8B-	4d-	4g-	4gg-
.	.	8G-	.	.	.
I	4BB-	4c-	4c-	4g-	4ee-
=12	=12	=12	=12	=12	=12
ii7b	4CC	4F-	4c-	4a-	4dd-
V	4FF	4G-	4B-	4g-	4dd-
I	4BB-	4C-	4e-	4g-	4cc-
I;	4BB-;	4C-;	4e-;	4g-;	4cc-;
==	==	==	==	==	==
*-	*-	*-	*-	*-	*-
!!chor2scor: -l 2 -s 0.6 -o %b.pmx
!!!YEC: Copyright 1994, David Huron
!!!YEC: Changes/Additions 2001 by Craig Stuart Sapp
!!!YEN: United States of America
!!!SMA: 371 Bach Chorales, edited by Ludwig Erk, C.F. Peters
!!!PDT: 1850, 1865
!!!ONB: Harmony and Root analysis done manually
